svgs/medium.svg

<?xml version="1.0" encoding="UTF-8"?>
<svg width="192px" height="192px" viewBox="0 0 192 192" version="1.1" xmlns="http://www.w3.org/2000/svg" xmlns:xlink="http://www.w3.org/1999/xlink">
    <title>Artboard Copy 9</title>
    <g id="Artboard-Copy-9" stroke="none" stroke-width="1" fill="none" fill-rule="evenodd">
        <path d="M61.1255713,56 C71.9237832,56 81.6970392,60.4181217 88.7723554,67.5539163 C95.8663249,74.7085238 100.249609,84.5937002 100.249609,95.5097498 C100.249609,106.42545 95.8662099,116.309986 88.7724351,123.464155 C81.6968944,130.599936 71.9234092,135.017964 61.1255713,135.017964 C50.3275584,135.017964 40.5535997,130.599812 33.477661,123.463873 C26.3836848,116.309743 22,106.42533 22,95.5097498 C22,84.5938202 26.3835698,74.708766 33.4777408,67.5541986 C40.553455,60.4182449 50.3271844,56 61.1255713,56 Z" id="Path" stroke="#000000" stroke-width="12" fill-rule="nonzero"></path>
        <path d="M133.187892,58.6658431 C134.954155,58.6658431 136.59187,59.4343935 138.107359,60.6263417 C140.288796,62.3420647 142.19515,64.8987926 143.833619,68.0100404 C147.539748,75.0475163 149.750678,84.7848814 149.750678,95.5101386 C149.751373,106.232654 147.5405,115.970322 143.834256,123.008493 C142.195769,126.119987 140.28937,128.677095 138.107876,130.393103 C136.592694,131.584976 134.955348,132.353656 133.189426,132.353656 C131.423529,132.353656 129.786205,131.584999 128.271026,130.39316 C126.089514,128.677184 124.18307,126.120116 122.544494,123.008665 C118.837951,115.970403 116.62664,106.232518 116.62664,95.5097498 C116.62664,84.7867288 118.837682,75.0486285 122.544014,68.0102904 C124.1824,64.8989885 126.088626,62.3420399 128.269959,60.6261545 C129.784959,59.4344211 131.42212,58.6658431 133.187892,58.6658431 Z" id="Path" stroke="#000000" stroke-width="12" fill-rule="nonzero"></path>
        <path d="M168.064621,57.1283661 C172.44625,57.1283661 176,74.3119975 176,95.5097498 C176,116.70136 172.447783,133.891133 168.064621,133.891133 C163.681458,133.891133 160.130774,116.705967 160.130774,95.5097498 C160.130774,74.3135332 163.682991,57.1283661 168.064621,57.1283661 Z" id="Path" fill="#000000" fill-rule="nonzero"></path>
    </g>
</svg>

<svg width="192" height="192" viewBox="0 0 192 192" xmlns="http://www.w3.org/2000/svg"><g fill="none" fill-rule="evenodd"><path d="M61.126 56c10.798 0 20.571 4.418 27.646 11.554 7.094 7.155 11.478 17.04 11.478 27.956 0 10.915-4.384 20.8-11.478 27.954-7.075 7.136-16.849 11.554-27.646 11.554-10.798 0-20.572-4.418-27.648-11.554C26.384 116.31 22 106.425 22 95.51c0-10.916 4.384-20.801 11.478-27.956C40.553 60.418 50.328 56 61.126 56ZM133.188 58.666c1.766 0 3.404.768 4.92 1.96 2.18 1.716 4.087 4.273 5.726 7.384 3.706 7.038 5.917 16.775 5.917 27.5 0 10.723-2.21 20.46-5.917 27.498-1.638 3.112-3.545 5.67-5.726 7.385-1.515 1.192-3.153 1.96-4.919 1.96-1.765 0-3.403-.768-4.918-1.96-2.181-1.716-4.088-4.273-5.727-7.384-3.706-7.039-5.917-16.776-5.917-27.5 0-10.722 2.21-20.46 5.917-27.499 1.638-3.111 3.545-5.668 5.726-7.384 1.515-1.192 3.152-1.96 4.918-1.96Z" stroke="#000" stroke-width="12"/><path d="M168.065 57.128c4.381 0 7.935 17.184 7.935 38.382 0 21.191-3.552 38.381-7.935 38.381-4.384 0-7.934-17.185-7.934-38.381s3.552-38.382 7.934-38.382Z" fill="#000" fill-rule="nonzero"/></g></svg>
